Project/img/next.svg

<svg xmlns="http://www.w3.org/2000/svg" xmlns:xlink="http://www.w3.org/1999/xlink" preserveAspectRatio="xMidYMid" width="12" height="21" viewBox="0 0 12 21">
  <defs>
    <style>
      .cls-1 {
        fill: #ccc;
        fill-rule: evenodd;
      }
    </style>
  </defs>
  <path d="M0.523,18.359 L8.381,10.502 L0.419,2.539 L0.420,2.539 C0.160,2.269 -0.001,1.903 -0.001,1.497 C-0.001,0.669 0.671,-0.002 1.499,-0.002 C1.904,-0.002 2.270,0.157 2.541,0.419 L2.541,0.418 L11.541,9.418 L11.540,9.419 C11.823,9.691 11.999,10.074 11.999,10.498 C11.999,10.499 11.999,10.501 11.999,10.502 C11.999,10.503 11.999,10.504 11.999,10.505 C11.999,10.928 11.823,11.311 11.540,11.584 L11.541,11.584 L2.541,20.584 L2.537,20.581 C2.268,20.839 1.902,20.998 1.499,20.998 C0.671,20.998 -0.001,20.327 -0.001,19.498 C-0.001,19.043 0.202,18.635 0.523,18.359 Z" class="cls-1"/>
</svg>

<svg xmlns="http://www.w3.org/2000/svg" width="12" height="21" preserveAspectRatio="xMidYMid"><defs><style>.cls-1 { fill: #ccc; fill-rule: evenodd; }</style></defs><path d="M.52 18.36l7.86-7.86L.42 2.54C.16 2.27 0 1.9 0 1.5 0 .67.67 0 1.5 0c.4 0 .77.16 1.04.42l9 9c.28.27.46.65.46 1.08 0 .43-.18.8-.46 1.08l-9 9c-.27.26-.64.42-1.04.42-.83 0-1.5-.67-1.5-1.5 0-.46.2-.86.52-1.14z" class="cls-1"/></svg>
